packages/icons/svg/24/AddText.svg

<svg width="24" height="24" viewBox="0 0 24 24" fill="none" xmlns="http://www.w3.org/2000/svg">
<path d="M19 7H21C21.55 7 22 6.55 22 6C22 5.45 21.55 5 21 5H19V3C19 2.45 18.55 2 18 2C17.45 2 17 2.45 17 3V5H15C14.45 5 14 5.45 14 6C14 6.55 14.45 7 15 7H17V9C17 9.55 17.45 10 18 10C18.55 10 19 9.55 19 9V7Z" fill="#858585"/>
<path fill-rule="evenodd" clip-rule="evenodd" d="M9.10484 4C9.89817 4 10.6159 4.49111 10.8993 5.22778L16.1504 19.0733C16.4904 19.9989 15.8104 21 14.8093 21H14.7904C14.1859 21 13.6571 20.6222 13.4493 20.0744L12.0354 16H6.18184L4.76039 20.0556C4.55262 20.6222 4.02373 21 3.41928 21C2.41817 21 1.73817 19.9989 2.09706 19.0733L7.32928 5.22778C7.59373 4.49111 8.3115 4 9.10484 4ZM9.12327 7.60776L11.3414 14H6.88283L9.12327 7.60776Z" fill="#858585"/>
</svg>

<svg width="24" height="24" fill="none" xmlns="http://www.w3.org/2000/svg" viewBox="0 0 24 24"><path d="M19 7h2c.55 0 1-.45 1-1s-.45-1-1-1h-2V3c0-.55-.45-1-1-1s-1 .45-1 1v2h-2c-.55 0-1 .45-1 1s.45 1 1 1h2v2c0 .55.45 1 1 1s1-.45 1-1V7z" fill="currentColor"></path><path fill-rule="evenodd" clip-rule="evenodd" d="M9.105 4c.793 0 1.51.491 1.794 1.228l5.251 13.845C16.49 20 15.81 21 14.81 21h-.02a1.436 1.436 0 01-1.34-.926L12.034 16H6.182L4.76 20.056A1.426 1.426 0 013.42 21a1.415 1.415 0 01-1.323-1.927L7.33 5.228A1.883 1.883 0 019.105 4zm.018 3.608L11.341 14H6.883l2.24-6.392z" fill="currentColor"></path></svg>
